assets/Man merpeople/Medium-Light/Flat/man_merpeople_flat_medium-light.svg

<svg width="32" height="32" viewBox="0 0 32 32" fill="none" xmlns="http://www.w3.org/2000/svg">
<path d="M28.3342 4.71593C27.9342 4.37593 27.6942 3.89593 27.6642 3.39593H28.2542C28.3842 3.39593 28.4442 3.22593 28.3442 3.14593L27.0242 2.10593C26.9042 2.00593 26.7442 2.08593 26.7442 2.22593V3.39593C26.7442 4.21593 27.1042 4.86593 27.7342 5.40593C28.1242 5.73593 28.3442 6.21593 28.3542 6.72593C28.3642 7.19593 28.1742 7.63593 27.8442 7.96593C27.5042 8.31593 27.0442 8.50593 26.5642 8.50593C25.9742 8.50593 25.4942 8.02593 25.4942 7.43593V3.38593H25.8242C25.9742 3.38593 26.0542 3.21593 25.9642 3.10593L25.1842 2.09593C25.0942 1.98593 24.9242 1.98593 24.8342 2.09593L24.0642 3.10593C23.9742 3.22593 24.0542 3.38593 24.2042 3.38593H24.5942L24.5942 7.41931C24.5924 8.00776 24.1131 8.48593 23.5242 8.48593C23.0442 8.48593 22.5842 8.29593 22.2442 7.94593C21.9142 7.60593 21.7342 7.16593 21.7342 6.70593C21.7442 6.19593 21.9642 5.71593 22.3542 5.38593C22.9842 4.84593 23.3442 4.19593 23.3442 3.37593V2.20593C23.3442 2.06593 23.1842 1.99593 23.0742 2.07593L21.7542 3.11593C21.6442 3.19593 21.7042 3.36593 21.8442 3.36593H22.4342C22.3942 3.86593 22.1542 4.34593 21.7642 4.68593C21.1842 5.18593 20.8442 5.91593 20.8342 6.67593C20.8242 7.38593 21.1042 8.05593 21.6042 8.56593C22.1142 9.08593 22.7942 9.36593 23.5242 9.36593H24.5942L23.9942 9.36597C23.7442 9.36597 23.5442 9.59714 23.5442 9.88611C23.5442 10.1751 23.7442 10.4062 23.9942 10.4062H24.5942V29.586C24.5942 29.816 24.7842 30.006 25.0142 30.006H25.0642C25.2942 30.006 25.4742 29.816 25.4842 29.596V10.4062H26.0942C26.3442 10.4062 26.5542 10.1635 26.5542 9.88611C26.5542 9.65887 26.4305 9.46738 26.2561 9.39593H26.5642C27.2842 9.39593 27.9742 9.10593 28.4842 8.59593C28.9842 8.08593 29.2642 7.41593 29.2542 6.70593C29.2542 5.93593 28.9142 5.21593 28.3342 4.71593Z" fill="#FF9F2E"/>
<path d="M17.3742 16.2061L17.0842 16.5961C16.7942 16.4961 16.4842 16.4461 16.1542 16.4461L13.1142 16.2061C11.9942 16.3961 10.8142 17.7261 10.8142 19.3061C10.8142 20.8861 12.3342 21.8161 13.1042 22.2161C13.1042 22.2161 15.3642 23.2861 15.5242 24.9861C15.6342 26.2161 15.0442 28.5661 11.0242 28.0061C10.3642 27.9161 9.7842 27.5861 9.5542 26.9961C9.5142 26.8861 9.5642 26.7761 9.6742 26.7261L10.4342 26.4161C11.2842 26.0761 11.8542 25.2461 11.8542 24.3261V23.7161C11.8542 23.5161 11.6542 23.3761 11.4642 23.4561L9.7742 24.1261C9.2942 24.3161 8.9142 24.6761 8.6842 25.1261C8.6342 25.2161 8.5442 25.2761 8.4542 25.2761C8.3642 25.2761 8.2642 25.2161 8.2242 25.1261C7.9942 24.6861 7.6142 24.3261 7.1342 24.1261L5.4442 23.4561C5.2542 23.3861 5.0542 23.5161 5.0542 23.7161V24.3261C5.0542 25.2461 5.6142 26.0761 6.4742 26.4161L7.3242 26.7561C7.4142 26.7961 7.4842 26.8761 7.5042 26.9761C7.7542 28.6961 9.2342 30.0061 11.0242 30.0061H11.2542H14.1542C16.6842 30.0061 19.0342 28.6061 20.1742 26.3461C20.6242 25.4561 20.9142 24.3861 20.9142 23.1061C20.9042 17.9761 17.3742 16.2061 17.3742 16.2061Z" fill="#00D26A"/>
<path d="M4.49414 17.2061C4.32414 17.2061 4.16414 17.1061 4.09414 16.9461C3.72414 16.1161 4.14414 15.4961 4.42414 15.2761L5.15414 15.8161L5.09414 15.8561C5.03414 15.9061 4.72414 16.2161 4.89414 16.5961C4.99414 16.8161 4.89414 17.0761 4.67414 17.1761C4.61414 17.1961 4.55414 17.2061 4.49414 17.2061Z" fill="#E4B29A"/>
<path d="M21.5242 13.5161C21.2842 13.4761 21.1742 13.3561 21.0442 13.2361L19.5242 11.7661C18.994 11.2572 18.3719 10.866 17.698 10.6124L15.8542 10.7187H13.7842L11.8535 10.6569C11.2335 10.9108 10.6642 11.2861 10.1842 11.7661L7.77422 14.1761C7.68422 14.2661 7.57422 14.3161 7.45422 14.3361L4.73422 14.6361C4.65422 14.6361 4.57422 14.6461 4.49422 14.6661C4.01422 14.7561 3.58422 15.0361 3.32422 15.4661L3.09422 15.8361C2.92422 16.0561 2.99422 16.3561 3.22422 16.5061C3.30422 16.5561 3.39422 16.5761 3.48422 16.5761C3.64422 16.5761 3.80422 16.4961 3.89422 16.3461L4.12422 15.9761C4.29422 15.7261 4.54422 15.6461 4.71422 15.6161C4.79422 15.6061 4.87422 15.6361 4.92422 15.6961C4.98422 15.7861 4.97422 15.8961 4.90422 15.9661L4.57422 16.3061C4.38422 16.4961 4.37422 16.8261 4.56422 17.0161C4.65422 17.1061 4.77422 17.1461 4.90422 17.1461C5.02422 17.1461 5.15422 17.0961 5.24422 17.0061L5.33422 16.9161C5.41422 16.8361 5.53422 16.7861 5.64422 16.7861H7.70422C8.39422 16.7861 9.04422 16.5161 9.53422 16.0261L11.2742 14.2861C11.3542 14.2061 11.4942 14.2561 11.5042 14.3761C11.5242 14.6661 11.5442 14.9661 11.5642 15.2561C11.6042 15.6561 11.5942 16.2161 11.4142 16.8661C11.3942 16.9261 11.3842 16.9761 11.3742 17.0361C11.2342 17.7961 11.6942 18.5061 12.4142 18.7161C13.9042 19.1461 15.4942 19.1561 16.9842 18.7361C17.6042 18.5661 18.0642 18.0361 18.1042 17.3961C18.1142 17.2361 18.0942 17.0661 18.0542 16.9161C17.8642 16.2561 17.8542 15.6761 17.8942 15.2761C17.9242 14.9861 17.9442 14.5061 17.9642 14.2061C17.9742 14.0961 18.1042 14.0361 18.1942 14.1161L19.1642 15.0461C19.8242 15.6861 20.7042 16.0361 21.6242 16.0361H25.4842L25.4742 13.8461L21.5242 13.5161Z" fill="#EEBFAA"/>
<path d="M13 7C13 7.55228 12.5523 8 12 8C11.4477 8 11 7.55228 11 7C11 6.44772 11.4477 6 12 6C12.5523 6 13 6.44772 13 7Z" fill="#E4B29A"/>
<path d="M18.5442 7C18.5442 7.55228 18.0965 8 17.5442 8C16.9919 8 16.5442 7.55228 16.5442 7C16.5442 6.44772 16.9919 6 17.5442 6C18.0965 6 18.5442 6.44772 18.5442 7Z" fill="#E4B29A"/>
<path d="M17.7209 10.6212C17.2074 11.1653 16.4871 11.5 15.6716 11.5H13.8234C13.0327 11.5 12.3315 11.1853 11.8215 10.6702C12.4375 10.413 13.1045 10.2761 13.7842 10.2761H15.8542C16.4988 10.2761 17.13 10.3956 17.7209 10.6212Z" fill="#E4B29A"/>
<path d="M14.4964 2.5C12.8994 2.5 11.6438 3.88107 11.7543 5.49744L11.9753 8.75064C12.0758 9.77366 12.8592 10.5 13.8235 10.5H15.6716C16.6359 10.5 17.4194 9.77366 17.5198 8.75064L17.7408 5.49744C17.8513 3.88107 16.5957 2.5 14.9987 2.5H14.4964V2.5Z" fill="#EEBFAA"/>
<path d="M12.6043 6.79995C12.6843 6.45995 13.0043 6.19995 13.3743 6.19995C13.7643 6.19995 14.0843 6.46995 14.1543 6.83995C14.1743 6.91995 14.1043 6.98995 14.0243 6.98995H12.7543C12.6543 6.98995 12.5843 6.89995 12.6043 6.79995Z" fill="white"/>
<path d="M16.8743 6.79995C16.7943 6.45995 16.4743 6.19995 16.1043 6.19995C15.7143 6.19995 15.3943 6.46995 15.3243 6.83995C15.3043 6.91995 15.3743 6.98995 15.4543 6.98995H16.7243C16.8243 6.98995 16.8943 6.89995 16.8743 6.79995Z" fill="white"/>
<path d="M12.5945 5.40729L12.5953 5.40663L12.5964 5.40586L12.5988 5.404L12.6056 5.39908C12.6108 5.39529 12.6176 5.39048 12.6259 5.38484C12.6425 5.37356 12.6652 5.35887 12.6937 5.34211C12.7504 5.30869 12.8307 5.26657 12.9316 5.22713C13.1332 5.14831 13.4214 5.07851 13.7669 5.11488C13.9387 5.13296 14.0633 5.28687 14.0452 5.45865C14.0272 5.63043 13.8732 5.75503 13.7015 5.73694C13.477 5.71331 13.2902 5.75852 13.1593 5.80969C13.094 5.83525 13.0437 5.86189 13.0113 5.88096C12.9952 5.89046 12.9838 5.89795 12.9773 5.9023L12.9717 5.90622C12.8345 6.00903 12.6398 5.98222 12.5356 5.84565C12.4308 5.70834 12.4572 5.51208 12.5945 5.40729Z" fill="#A56953"/>
<path d="M16.7847 5.34211C16.728 5.30869 16.6477 5.26657 16.5468 5.22713C16.3452 5.14831 16.0569 5.07851 15.7114 5.11488C15.5397 5.13296 15.4151 5.28687 15.4331 5.45865C15.4512 5.63043 15.6051 5.75503 15.7769 5.73694C16.0014 5.71331 16.1882 5.75852 16.319 5.80969C16.3844 5.83525 16.4347 5.86189 16.4671 5.88096C16.4832 5.89046 16.4946 5.89795 16.501 5.9023L16.5066 5.90617C16.6438 6.00897 16.8386 5.98222 16.9428 5.84565C17.0476 5.70834 17.021 5.51192 16.8837 5.40714L16.7847 5.34211Z" fill="#A56953"/>
<path d="M12.9841 6.84594C12.9841 6.56594 13.2141 6.33594 13.4941 6.33594C13.7741 6.33594 14.0041 6.56594 14.0041 6.84594C14.0041 6.89594 13.9941 6.94594 13.9841 6.98594H13.0041C13.0027 6.97864 13.0012 6.97156 12.9998 6.96463C12.9914 6.92405 12.9841 6.88864 12.9841 6.84594Z" fill="#7D4533"/>
<path d="M16.4941 6.84594C16.4941 6.56594 16.2641 6.33594 15.9841 6.33594C15.7041 6.33594 15.4741 6.56594 15.4741 6.84594C15.4741 6.89594 15.4841 6.94594 15.4941 6.98594H16.4741C16.4756 6.97864 16.477 6.97156 16.4785 6.96463C16.4868 6.92405 16.4941 6.88864 16.4941 6.84594Z" fill="#7D4533"/>
<path d="M13.4943 6.55591C13.6543 6.55591 13.7843 6.68591 13.7843 6.84591C13.7843 6.87788 13.7762 6.90576 13.7677 6.93478C13.7629 6.95115 13.758 6.96788 13.7543 6.98591H13.2343C13.2143 6.93591 13.2043 6.89591 13.2043 6.84591C13.2043 6.68591 13.3343 6.55591 13.4943 6.55591Z" fill="black"/>
<path d="M15.9843 6.55591C15.8243 6.55591 15.6943 6.68591 15.6943 6.84591C15.6943 6.89591 15.7043 6.93591 15.7243 6.98591H16.2443C16.2643 6.93591 16.2743 6.89591 16.2743 6.84591C16.2743 6.68591 16.1443 6.55591 15.9843 6.55591Z" fill="black"/>
<path d="M13.4041 6.64591C13.4041 6.69561 13.3638 6.73591 13.3141 6.73591C13.2644 6.73591 13.2241 6.69561 13.2241 6.64591C13.2241 6.5962 13.2644 6.55591 13.3141 6.55591C13.3638 6.55591 13.4041 6.5962 13.4041 6.64591Z" fill="white"/>
<path d="M15.9141 6.64591C15.9141 6.69561 15.8738 6.73591 15.8241 6.73591C15.7744 6.73591 15.7341 6.69561 15.7341 6.64591C15.7341 6.5962 15.7744 6.55591 15.8241 6.55591C15.8738 6.55591 15.9141 6.5962 15.9141 6.64591Z" fill="white"/>
<path d="M14.5494 6.80594L14.2628 7.75594C14.2054 7.95594 14.3488 8.14594 14.5398 8.14594H14.9602C15.1512 8.14594 15.2946 7.94594 15.2372 7.75594L14.9506 6.80594C14.8933 6.59594 14.6067 6.59594 14.5494 6.80594Z" fill="#D19479"/>
<path d="M17.652 3.34603L17.4198 3.22603C17.2554 3.13603 17.1006 3.02603 16.9748 2.89603L16.5105 2.38603C16.172 2.03603 15.6593 1.91603 15.2046 2.07603C14.9048 2.18603 14.5952 2.22603 14.2954 2.11603C13.8988 1.90603 13.4054 1.98603 13.0959 2.31603L12.5348 2.89603C12.3994 3.03603 12.2446 3.14603 12.0802 3.22603L11.848 3.34603C11.4224 3.56603 11.1806 4.05603 11.2676 4.54603L11.5772 6.30603C11.6062 6.48603 11.7513 6.60603 11.9254 6.61603C11.9254 6.61603 11.8964 6.11603 11.877 5.79603C11.8674 5.63603 11.9254 5.47603 12.0512 5.36603L12.1479 5.27603C12.293 5.13603 12.3704 4.95603 12.3704 4.76603V4.27603C12.3704 4.13603 12.4671 4.01603 12.5929 3.97603C12.9411 3.88603 13.7053 3.72603 14.75 3.72603C15.7947 3.72603 16.5492 3.88603 16.9071 3.97603C17.0329 4.00603 17.1296 4.12603 17.1296 4.26603V4.75603C17.1296 4.94603 17.207 5.13603 17.3521 5.26603L17.4585 5.36603C17.5746 5.47603 17.6423 5.63603 17.6326 5.80603C17.6133 6.12603 17.5843 6.62603 17.5843 6.62603C17.7487 6.61603 17.8938 6.48603 17.9228 6.31603L18.2324 4.55603C18.3194 4.06603 18.0776 3.57603 17.652 3.34603Z" fill="#FFF9BA"/>
<path d="M14.7498 8.68614C14.4348 8.68614 14.1402 8.61614 13.8863 8.48614C13.805 8.44614 13.7136 8.53614 13.7644 8.61614C13.9777 8.93614 14.3333 9.14614 14.7498 9.14614C15.1663 9.14614 15.5218 8.93614 15.7351 8.61614C15.7859 8.53614 15.6945 8.44614 15.6132 8.48614C15.3694 8.61614 15.0748 8.68614 14.7498 8.68614Z" fill="#990838"/>
<path d="M26.1342 14.3559C26.1342 14.2159 26.0542 14.0959 25.9442 14.0359C26.0542 13.9759 26.1342 13.8459 26.1342 13.7159C26.1342 13.5059 25.9642 13.3459 25.7642 13.3459H25.1742C24.9642 13.3459 24.8042 13.5159 24.8042 13.7159C24.8042 13.8559 24.8842 13.9759 24.9942 14.0359C24.8842 14.0959 24.8042 14.2259 24.8042 14.3559C24.8042 14.4959 24.8842 14.6159 24.9942 14.6759C24.8842 14.7359 24.8042 14.8659 24.8042 14.9959C24.8042 15.1359 24.8842 15.2559 24.9942 15.3159C24.8842 15.3759 24.8042 15.5059 24.8042 15.6359C24.8042 15.8459 24.9742 16.0059 25.1742 16.0059H25.7642C25.9742 16.0059 26.1342 15.8359 26.1342 15.6359C26.1342 15.4959 26.0542 15.3759 25.9442 15.3159C26.0542 15.2559 26.1342 15.1259 26.1342 14.9959C26.1342 14.8559 26.0542 14.7359 25.9442 14.6759C26.0642 14.6159 26.1342 14.4959 26.1342 14.3559Z" fill="#E4B29A"/>
<path d="M25.3342 13.1061C25.2542 13.0161 25.1442 12.9661 25.0142 12.9661H24.1342C23.9542 12.9661 23.8042 13.0761 23.7442 13.2261C23.7442 13.2261 23.7442 13.2261 23.7442 13.2361L23.5742 13.6861L24.4042 13.7561C24.5242 13.7661 24.6242 13.8661 24.6242 13.9961V14.2761C24.6242 14.5161 24.8242 14.7161 25.0642 14.7061C25.3042 14.6961 25.4842 14.4961 25.4842 14.2561V13.4361C25.4742 13.2961 25.4242 13.1861 25.3342 13.1061Z" fill="#E4B29A"/>
</svg>

<svg xmlns="http://www.w3.org/2000/svg" width="32" height="32" fill="none"><path fill="#FF9F2E" d="M28.334 4.716c-.4-.34-.64-.82-.67-1.32h.59c.13 0 .19-.17.09-.25l-1.32-1.04c-.12-.1-.28-.02-.28.12v1.17c0 .82.36 1.47.99 2.01.39.33.61.81.62 1.32.01.47-.18.91-.51 1.24-.34.35-.8.54-1.28.54-.59 0-1.07-.48-1.07-1.07v-4.05h.33c.15 0 .23-.17.14-.28l-.78-1.01a.227.227 0 0 0-.35 0l-.77 1.01c-.09.12-.01.28.14.28h.39v4.033a1.071 1.071 0 0 1-1.07 1.067c-.48 0-.94-.19-1.28-.54-.33-.34-.51-.78-.51-1.24.01-.51.23-.99.62-1.32.63-.54.99-1.19.99-2.01v-1.17c0-.14-.16-.21-.27-.13l-1.32 1.04c-.11.08-.05.25.09.25h.59c-.04.5-.28.98-.67 1.32-.58.5-.92 1.23-.93 1.99-.01.71.27 1.38.77 1.89.51.52 1.19.8 1.92.8h1.07-.6c-.25 0-.45.231-.45.52 0 .29.2.52.45.52h.6v19.18c0 .23.19.42.42.42h.05c.23 0 .41-.19.42-.41v-19.19h.61c.25 0 .46-.242.46-.52 0-.227-.123-.419-.298-.49h.308c.72 0 1.41-.29 1.92-.8.5-.51.78-1.18.77-1.89 0-.77-.34-1.49-.92-1.99Z"/><path fill="#00D26A" d="m17.374 16.206-.29.39c-.29-.1-.6-.15-.93-.15l-3.04-.24c-1.12.19-2.3 1.52-2.3 3.1s1.52 2.51 2.29 2.91c0 0 2.26 1.07 2.42 2.77.11 1.23-.48 3.58-4.5 3.02-.66-.09-1.24-.42-1.47-1.01-.04-.11.01-.22.12-.27l.76-.31c.85-.34 1.42-1.17 1.42-2.09v-.61c0-.2-.2-.34-.39-.26l-1.69.67c-.48.19-.86.55-1.09 1-.05.09-.14.15-.23.15s-.19-.06-.23-.15c-.23-.44-.61-.8-1.09-1l-1.69-.67c-.19-.07-.39.06-.39.26v.61c0 .92.56 1.75 1.42 2.09l.85.34c.09.04.16.12.18.22a3.548 3.548 0 0 0 3.52 3.03h3.13c2.53 0 4.88-1.4 6.02-3.66.45-.89.74-1.96.74-3.24-.01-5.13-3.54-6.9-3.54-6.9Z"/><path fill="#E4B29A" d="M4.494 17.206c-.17 0-.33-.1-.4-.26-.37-.83.05-1.45.33-1.67l.73.54-.06.04c-.06.05-.37.36-.2.74.1.22 0 .48-.22.58-.06.02-.12.03-.18.03Z"/><path fill="#EEBFAA" d="M21.524 13.516c-.24-.04-.35-.16-.48-.28l-1.52-1.47a5.37 5.37 0 0 0-1.826-1.154l-1.844.107h-2.07l-1.93-.062c-.62.254-1.19.63-1.67 1.11l-2.41 2.41c-.09.09-.2.14-.32.16l-2.72.3c-.08 0-.16.01-.24.03-.48.09-.91.37-1.17.8l-.23.37c-.17.22-.1.52.13.67.08.05.17.07.26.07.16 0 .32-.08.41-.23l.23-.37c.17-.25.42-.33.59-.36.08-.01.16.02.21.08.06.09.05.2-.02.27l-.33.34c-.19.19-.2.52-.01.71.09.09.21.13.34.13.12 0 .25-.05.34-.14l.09-.09c.08-.08.2-.13.31-.13h2.06c.69 0 1.34-.27 1.83-.76l1.74-1.74c.08-.08.22-.03.23.09l.06.88c.04.4.03.96-.15 1.61-.02.06-.03.11-.04.17-.14.76.32 1.47 1.04 1.68 1.49.43 3.08.44 4.57.02.62-.17 1.08-.7 1.12-1.34.01-.16-.01-.33-.05-.48a4.41 4.41 0 0 1-.16-1.64c.03-.29.05-.77.07-1.07.01-.11.14-.17.23-.09l.97.93c.66.64 1.54.99 2.46.99h3.86l-.01-2.19-3.95-.33Z"/><path fill="#E4B29A" d="M13 7a1 1 0 1 1-2 0 1 1 0 0 1 2 0ZM18.544 7a1 1 0 1 1-2 0 1 1 0 0 1 2 0ZM17.72 10.621a2.792 2.792 0 0 1-2.048.879h-1.849c-.79 0-1.492-.315-2.002-.83a5.096 5.096 0 0 1 1.963-.394h2.07c.645 0 1.276.12 1.867.345Z"/><path fill="#EEBFAA" d="M14.496 2.5c-1.597 0-2.852 1.381-2.742 2.997l.221 3.254c.1 1.023.884 1.749 1.848 1.749h1.849c.964 0 1.747-.726 1.848-1.75l.22-3.253C17.852 3.881 16.597 2.5 15 2.5h-.503Z"/><path fill="#fff" d="M12.604 6.8a.795.795 0 0 1 1.55.04c.02.08-.05.15-.13.15h-1.27c-.1 0-.17-.09-.15-.19ZM16.874 6.8a.795.795 0 0 0-1.55.04c-.02.08.05.15.13.15h1.27c.1 0 .17-.09.15-.19Z"/><path fill="#A56953" d="m12.595 5.407.001-.001.003-.002.007-.005a.762.762 0 0 1 .088-.057 1.779 1.779 0 0 1 1.073-.227.313.313 0 0 1-.066.622 1.154 1.154 0 0 0-.724.165l-.005.004a.313.313 0 0 1-.377-.499ZM16.785 5.342a1.78 1.78 0 0 0-1.073-.227.313.313 0 0 0 .065.622 1.153 1.153 0 0 1 .724.165l.006.004a.313.313 0 0 0 .377-.499l-.1-.065Z"/><path fill="#7D4533" d="M12.984 6.846c0-.28.23-.51.51-.51a.512.512 0 0 1 .49.65h-.98L13 6.965a.557.557 0 0 1-.016-.12ZM16.494 6.846c0-.28-.23-.51-.51-.51a.512.512 0 0 0-.49.65h.98l.005-.021c.008-.04.015-.076.015-.12Z"/><path fill="#000" d="M13.494 6.556c.16 0 .29.13.29.29 0 .032-.008.06-.016.089a.627.627 0 0 0-.014.05h-.52a.353.353 0 0 1-.03-.14c0-.16.13-.29.29-.29ZM15.984 6.556a.29.29 0 0 0-.29.29c0 .05.01.09.03.14h.52c.02-.05.03-.09.03-.14a.29.29 0 0 0-.29-.29Z"/><path fill="#fff" d="M13.404 6.646a.09.09 0 1 1-.18 0 .09.09 0 0 1 .18 0ZM15.914 6.646a.09.09 0 1 1-.18 0 .09.09 0 0 1 .18 0Z"/><path fill="#D19479" d="m14.55 6.806-.287.95c-.058.2.086.39.277.39h.42c.191 0 .335-.2.277-.39l-.286-.95a.206.206 0 0 0-.402 0Z"/><path fill="#FFF9BA" d="m17.652 3.346-.232-.12c-.165-.09-.32-.2-.445-.33l-.465-.51a1.246 1.246 0 0 0-1.305-.31c-.3.11-.61.15-.91.04-.396-.21-.89-.13-1.2.2l-.56.58c-.136.14-.29.25-.455.33l-.232.12c-.426.22-.667.71-.58 1.2l.31 1.76c.028.18.173.3.347.31l-.048-.82a.524.524 0 0 1 .174-.43l.097-.09a.703.703 0 0 0 .222-.51v-.49c0-.14.097-.26.223-.3a8.79 8.79 0 0 1 2.157-.25c1.045 0 1.8.16 2.157.25.126.03.223.15.223.29v.49c0 .19.077.38.222.51l.107.1c.116.11.183.27.174.44l-.049.82c.165-.01.31-.14.339-.31l.31-1.76c.086-.49-.155-.98-.581-1.21Z"/><path fill="#990838" d="M14.75 8.686c-.315 0-.61-.07-.864-.2-.081-.04-.172.05-.122.13.214.32.57.53.986.53.416 0 .772-.21.985-.53.05-.08-.04-.17-.122-.13-.244.13-.538.2-.863.2Z"/><path fill="#E4B29A" d="M26.134 14.356c0-.14-.08-.26-.19-.32.11-.06.19-.19.19-.32a.37.37 0 0 0-.37-.37h-.59a.37.37 0 0 0-.18.69c-.11.06-.19.19-.19.32 0 .14.08.26.19.32-.11.06-.19.19-.19.32 0 .14.08.26.19.32-.11.06-.19.19-.19.32 0 .21.17.37.37.37h.59a.37.37 0 0 0 .18-.69c.11-.06.19-.19.19-.32 0-.14-.08-.26-.19-.32.12-.06.19-.18.19-.32Z"/><path fill="#E4B29A" d="M25.334 13.106a.416.416 0 0 0-.32-.14h-.88c-.18 0-.33.11-.39.26v.01l-.17.45.83.07c.12.01.22.11.22.24v.28c0 .24.2.44.44.43.24-.01.42-.21.42-.45v-.82a.466.466 0 0 0-.15-.33Z"/></svg>
